X:2018
T:Boys of Bluehill
T:Beaux of Oakhill
R:Hornpipe
C:Trad.
O:Ireland
M:4/4
L:1/8
Q:1/4=120
K:D
DA|"D"BAFA DAFA|"A"BA (3Bcd e2 de|"D"fagf "A7"egfe|"G"de (3fed B2 dA|
"D"BAFA DAFA|"Em"BA (3Bcd e2 de|"D"fagf "A7"egfe|"D"d2 dc d2:|
|:fg|"D"afdf a2 gf|"Em"efga b2 ag|"D"fagf egfe|"G"de (3fed B2 dA|
"D"BAFA DAFA|"Em"BA (3Bcd e2 de|"D"fagf "A7"egfe|"D"d2 d2 d2:|

